src/assets/images/svg/social/logo-github2.svg

<svg width="55" height="56" viewBox="0 0 55 56" fill="none" xmlns="http://www.w3.org/2000/svg">
<path d="M10.7422 33.4531C10.599 33.3099 10.599 33.1666 10.7422 33.0234C11.0286 32.7369 11.3867 32.6295 11.8164 32.7011C12.246 32.7728 12.4967 32.8444 12.5683 32.916C13.0696 33.1308 13.6246 33.6142 14.2333 34.3662C14.842 35.1182 15.3254 35.6373 15.6835 35.9238C17.4023 37.3561 19.1568 37.4635 20.9471 36.2461C21.0904 35.7448 21.3232 35.3151 21.6454 34.9569C21.9676 34.5989 22.272 34.3483 22.5585 34.205C22.845 34.0618 23.3463 33.8469 24.0624 33.5605C21.6991 33.3456 19.7834 32.9338 18.3153 32.3251C16.8472 31.7164 15.6835 30.9465 14.8241 30.0155C13.6783 28.7265 12.98 27.0435 12.7294 24.9667C12.4786 22.8899 12.6398 20.9921 13.2128 19.2734C13.6425 18.1991 14.2512 17.2324 15.0389 16.373C14.466 14.5826 14.5734 12.5416 15.3612 10.2499C17.6528 10.3932 19.7296 11.1809 21.5916 12.6132C25.1723 11.6822 28.8963 11.6464 32.7634 12.5058C33.2647 12.1477 34.0346 11.7002 35.073 11.163C36.1114 10.6259 37.4184 10.3215 38.9939 10.2499C39.2804 11.0376 39.4773 11.9686 39.5847 13.0428C39.6922 14.1171 39.6385 15.1197 39.4236 16.0507C41.0707 17.7694 41.9301 20.0611 42.0017 22.9256C42.0017 25.2173 41.6079 27.1151 40.8201 28.619C40.0324 30.1229 38.6359 31.3762 36.6307 32.3787C35.27 33.0233 33.4796 33.4171 31.2596 33.5603C32.2622 34.0616 32.9963 34.5809 33.4618 35.118C33.9273 35.6551 34.2316 36.4965 34.3749 37.6424V41.0262L34.4823 44.3026C34.6971 44.6607 34.9478 44.965 35.2343 45.2157C35.5208 45.4664 35.7714 45.6454 35.9862 45.7529C36.201 45.8603 36.2727 46.0214 36.201 46.2363C36.1294 46.4511 35.843 46.5585 35.3417 46.5585C34.1242 46.5585 33.1575 46.1289 32.4413 45.2694C32.2265 44.9114 32.1191 44.4817 32.1191 43.9804V38.8241C32.1191 38.2512 31.9758 37.8394 31.6894 37.5887C31.4029 37.338 31.1165 37.1769 30.83 37.1053V43.8729C30.83 45.0903 30.9732 45.8781 31.2597 46.2362C31.5462 46.5942 31.7252 46.9524 31.7969 47.3104C31.8685 47.382 31.8147 47.4357 31.6357 47.4715C31.4567 47.5072 31.1523 47.4536 30.7226 47.3104C29.7916 47.0955 29.1471 46.6121 28.789 45.8602C28.4309 45.1082 28.2519 44.3025 28.2519 43.4431V36.7832H26.8554V43.4433C26.8554 44.3027 26.6763 45.1263 26.3182 45.914C25.817 46.9167 24.8859 47.4537 23.5253 47.5253C23.3105 47.4537 23.2031 47.3821 23.2031 47.3106C23.2747 47.2389 23.4895 46.8809 23.8476 46.2363C23.9192 46.0931 24.0088 45.8066 24.1162 45.377C24.2236 44.9473 24.2773 44.446 24.2773 43.8731V37.1054C23.9909 37.177 23.7223 37.3381 23.4716 37.5889C23.221 37.8396 23.0956 38.2513 23.0956 38.8242V43.9805C23.0956 44.4817 22.9882 44.9115 22.7734 45.2695C22.1288 46.1289 21.162 46.5587 19.873 46.5587C19.3717 46.5587 19.0853 46.4512 19.0137 46.2364C18.942 46.0932 18.9599 45.9678 19.0674 45.8604C19.1749 45.753 19.336 45.6276 19.5508 45.4844C19.7657 45.3412 19.9089 45.2337 19.9805 45.1621C20.267 44.9473 20.4818 44.6608 20.625 44.3027C20.8399 44.0163 20.8936 43.2643 20.7862 42.0469C20.6787 40.8294 20.6608 40.0417 20.7324 39.6836C18.8704 40.3281 16.9727 40.0058 15.039 38.7168C14.4661 38.1439 13.8932 37.3203 13.3203 36.2461C12.8906 35.4583 12.0312 34.5273 10.7422 33.4531Z" fill="#EAEDF0"/>
</svg>

<svg xmlns="http://www.w3.org/2000/svg" width="55" height="56" fill="none"><path fill="#EAEDF0" d="M10.742 33.453c-.143-.143-.143-.286 0-.43.287-.286.645-.394 1.074-.322.43.072.68.143.752.215.502.215 1.057.698 1.665 1.45.609.752 1.092 1.271 1.45 1.558 1.72 1.432 3.474 1.54 5.264.322a3.22 3.22 0 0 1 .698-1.29c.323-.357.627-.608.913-.751.287-.143.788-.358 1.504-.645-2.363-.214-4.279-.626-5.747-1.235-1.468-.609-2.632-1.379-3.49-2.31-1.147-1.288-1.845-2.971-2.096-5.048-.25-2.077-.09-3.975.484-5.694a9.458 9.458 0 0 1 1.826-2.9c-.573-1.79-.466-3.831.322-6.123 2.292.143 4.369.93 6.23 2.363 3.581-.93 7.305-.967 11.172-.107.502-.358 1.272-.806 2.31-1.343 1.038-.537 2.345-.841 3.92-.913.287.788.484 1.719.592 2.793.107 1.074.053 2.077-.161 3.008 1.647 1.718 2.506 4.01 2.578 6.875 0 2.291-.394 4.19-1.182 5.693-.788 1.504-2.184 2.757-4.19 3.76-1.36.644-3.15 1.038-5.37 1.181 1.002.502 1.736 1.02 2.202 1.558.465.537.77 1.378.913 2.524v3.384l.107 3.277c.215.358.466.662.752.913.287.25.537.43.752.537.215.107.287.268.215.483-.072.215-.358.323-.86.323-1.217 0-2.184-.43-2.9-1.29-.215-.358-.322-.787-.322-1.289v-5.156c0-.573-.143-.985-.43-1.235-.286-.251-.573-.412-.859-.484v6.768c0 1.217.143 2.005.43 2.363.286.358.465.716.537 1.074.072.072.018.126-.161.161-.18.036-.484-.017-.913-.16-.931-.215-1.576-.699-1.934-1.45a5.55 5.55 0 0 1-.537-2.418v-6.66h-1.397v6.66c0 .86-.179 1.683-.537 2.471-.501 1.003-1.432 1.54-2.793 1.611-.214-.071-.322-.143-.322-.214.072-.072.287-.43.645-1.075.071-.143.16-.43.268-.859.108-.43.161-.931.161-1.504v-6.768c-.286.072-.555.233-.805.484-.251.25-.376.662-.376 1.235v5.157c0 .5-.108.93-.323 1.288-.644.86-1.611 1.29-2.9 1.29-.501 0-.788-.108-.86-.323-.071-.143-.053-.268.054-.376.108-.107.269-.232.484-.376.215-.143.358-.25.43-.322.286-.215.5-.501.644-.86.215-.286.269-1.038.161-2.255-.107-1.218-.125-2.005-.054-2.363-1.862.644-3.76.322-5.693-.967-.573-.573-1.146-1.397-1.719-2.47-.43-.789-1.289-1.72-2.578-2.794Z"/></svg>
